Newaita-dark/apps/22/ruby.svg

<svg height="22pt" viewBox="0 0 22 22" width="22pt" xmlns="http://www.w3.org/2000/svg" xmlns:xlink="http://www.w3.org/1999/xlink"><linearGradient id="a"><stop offset="0" stop-opacity=".313725"/><stop offset=".222222" stop-opacity=".27451"/><stop offset="1" stop-opacity="0"/></linearGradient><radialGradient id="b" cx="450.90894" cy="189.57936" gradientTransform="matrix(.00000009 -.0537161 -.0725168 -.00000007 24.492201 43.747057)" gradientUnits="userSpaceOnUse" r="21.166656" xlink:href="#a"/><radialGradient id="c" cx="450.90894" cy="189.57936" gradientTransform="matrix(-.00000009 .0537161 .0725168 .00000007 -2.661993 -5.149877)" gradientUnits="userSpaceOnUse" r="21.166656" xlink:href="#a"/><radialGradient id="d" cx="450.90894" cy="189.57936" gradientTransform="matrix(-.00000009 -.0537161 .0725168 -.00000007 -2.661993 43.747057)" gradientUnits="userSpaceOnUse" r="21.166656" xlink:href="#a"/><radialGradient id="e" cx="450.90894" cy="189.57936" gradientTransform="matrix(.00000009 .0537161 -.0725168 .00000007 24.4922 -5.149877)" gradientUnits="userSpaceOnUse" r="21.166656" xlink:href="#a"/><linearGradient id="f"><stop offset="0" stop-color="#e57373"/><stop offset="1" stop-color="#ef9a9a"/></linearGradient><linearGradient id="g" gradientUnits="userSpaceOnUse" x1="5.457552" x2="5.457552" xlink:href="#f" y1="19.27332442218" y2="1.99107562629"/><linearGradient id="h"><stop offset="0" stop-color="#ef5350"/><stop offset="1" stop-color="#e57373"/></linearGradient><linearGradient id="i" gradientUnits="userSpaceOnUse" x1="9.09592" x2="9.09592" xlink:href="#h" y1="19.27332442218" y2="1.99107562629"/><linearGradient id="j"><stop offset="0" stop-color="#f44336"/><stop offset="1" stop-color="#ef5350"/></linearGradient><linearGradient id="k" gradientUnits="userSpaceOnUse" x1="10.915104" x2="10.915104" xlink:href="#j" y1="19.27332442218" y2="1.99107551259"/><linearGradient id="l" gradientUnits="userSpaceOnUse" x1="14.553472" x2="14.553472" xlink:href="#h" y1="19.27332442218" y2="1.99107562629"/><linearGradient id="m" gradientUnits="userSpaceOnUse" x1="17.282248" x2="17.282248" xlink:href="#f" y1="19.27332442218" y2="1.99107562629"/><linearGradient id="n" gradientUnits="userSpaceOnUse" x1="4.54796" x2="4.54796" xlink:href="#j" y1="19.27332442218" y2="1.99107562629"/><linearGradient id="o" gradientUnits="userSpaceOnUse" x1="10.915104" x2="10.915104" xlink:href="#h" y1="19.27332442218" y2="1.99107551259"/><linearGradient id="p" gradientUnits="userSpaceOnUse" x1="15.463064" x2="15.463064" xlink:href="#j" y1="19.27332442218" y2="1.99107562629"/><path d="m10.914062 19.296875h1.367188v-.90625h-1.367188zm0 0" fill="url(#b)"/><path d="m10.914062 19.296875h-1.363281v.910156h1.363281zm0 0" fill="url(#c)"/><path d="m10.914062 19.296875h-1.363281v-.90625h1.363281zm0 0" fill="url(#d)"/><path d="m10.914062 19.296875h1.367188v.910156h-1.367188zm0 0" fill="url(#e)"/><path d="m4.96875 2.214844c-.101562.089844-.183594.199218-.242188.328125l-2.726562 6.367187c-.050781.117188-.074219.238282-.074219.359375h5.65625zm0 0" fill="url(#g)"/><path d="m10.90625 1.996094h-5.347656c-.21875 0-.429688.082031-.589844.21875l2.613281 7.046875zm0 0" fill="url(#i)"/><path d="m10.90625 1.996094-3.324219 7.265625v.007812h6.667969l-3.328125-7.273437zm0 0" fill="url(#k)"/><path d="m17.0625 2.214844c-.160156-.140625-.367188-.21875-.585938-.21875h-5.554687l3.328125 7.273437h.027344zm0 0" fill="url(#l)"/><path d="m17.0625 2.214844-2.785156 7.054687h5.832031c0-.121093-.023437-.242187-.074219-.359375l-2.726562-6.367187c-.058594-.128907-.140625-.242188-.246094-.328125zm0 0" fill="url(#m)"/><path d="m7.578125 9.269531h-5.753906c0 .21875.078125.433594.230469.605469l8.1875 9.09375c.179687.199219.425781.300781.671874.300781zm0 0" fill="url(#n)"/><path d="m7.578125 9.269531 3.335937 10h.003907l3.332031-10zm0 0" fill="url(#o)"/><path d="m14.25 9.269531-3.332031 10c.246093 0 .492187-.101562.671875-.300781l8.183594-9.09375c.152343-.171875.234374-.386719.234374-.605469zm0 0" fill="url(#p)"/><path d="m5.558594 1.996094c-.21875 0-.429688.082031-.589844.21875-.101562.089844-.183594.199218-.242188.328125l-2.726562 6.367187c-.050781.117188-.074219.238282-.074219.359375h-.101562c0 .074219.007812.148438.027343.222657h.074219c0-.121094.023438-.242188.074219-.355469l2.726562-6.367188c.058594-.128906.140626-.238281.242188-.328125.160156-.140625.371094-.222656.589844-.222656h10.917968c.21875 0 .425782.082031.585938.21875.105469.089844.1875.203125.246094.332031l2.726562 6.367188c.019532.042969.035156.085937.046875.132812h.027344c0-.121093-.023437-.242187-.074219-.359375l-2.726562-6.367187c-.058594-.128907-.140625-.242188-.246094-.328125-.160156-.140625-.367188-.21875-.585938-.21875zm0 0" fill="#fff" fill-opacity=".392157"/><path d="m1.824219 9.269531c0 .21875.078125.433594.230469.605469l8.1875 9.09375c.179687.199219.425781.300781.671874.300781h.003907c.246093 0 .492187-.101562.671875-.300781l8.183594-9.09375c.152343-.171875.234374-.386719.234374-.605469h-.046874c-.039063.113281-.101563.222657-.1875.316407l-8.183594 9.09375c-.179688.203124-.425782.300781-.671875.300781-.003907 0-.003907 0-.003907 0-.246093 0-.492187-.097657-.671874-.300781l-8.1875-9.09375c-.082032-.09375-.144532-.203126-.183594-.316407zm0 0" fill-opacity=".235294"/><path d="m5.558594 1.929688c-.234375 0-.457032.089843-.628906.238281-.003907 0-.003907 0-.003907 0-.109375.09375-.199219.210937-.257812.351562l-2.726563 6.367188c-.046875.101562-.070312.210937-.078125.316406h-.039062c-.035157 0-.066407.027344-.066407.066406 0 .234375.085938.464844.25.648438l8.1875 9.09375c.191407.214843.453126.320312.71875.320312h.003907c.261719 0 .527343-.105469.71875-.320312l8.183593-9.09375c.148438-.167969.234376-.371094.25-.585938h.039063c.035156 0 .066406-.027343.066406-.0625 0-.128906-.027343-.261719-.082031-.382812l-2.726562-6.367188c-.058594-.140625-.152344-.261719-.261719-.355469-.171875-.148437-.394531-.234374-.628907-.234374zm0 .128906h5.246094l-2.027344 4.433594-1.191406 2.597656-2.539063-6.851563c.144531-.113281.324219-.179687.511719-.179687zm5.464844 0h5.453124c.1875 0 .363282.066406.507813.175781l-.042969.113281-2.679687 6.789063zm-.109376.074218 3.234376 7.070313h-6.46875l.316406-.695313zm6.171876.191407c.066406.070312.121093.152343.164062.246093l2.726562 6.367188c.039063.085938.058594.175781.066407.265625h-5.671875zm-12.144532.007812 2.550782 6.871094h-5.5c.007812-.089844.03125-.179687.066406-.265625l2.730468-6.367188c.035157-.089843.089844-.171874.152344-.238281zm-3.050781 7h5.644531l3.289063 9.867188c-.199219-.023438-.390625-.113281-.535157-.273438l-8.183593-9.09375c-.128907-.140625-.199219-.316406-.214844-.5zm5.777344 0h6.492187l-3.246094 9.738281zm6.628906 0h5.640625c-.011719.183594-.085938.359375-.210938.5l-8.1875 9.09375c-.144531.160157-.335937.25-.53125.273438zm0 0" fill="#212121"/></svg>

<?xml version="1.0" encoding="UTF-8"?>
<svg xmlns="http://www.w3.org/2000/svg" xmlns:xlink="http://www.w3.org/1999/xlink" width="22pt" height="22pt" viewBox="0 0 22 22" version="1.1">
<defs>
<radialGradient id="radial0" gradientUnits="userSpaceOnUse" cx="450.90894" cy="189.57936" fx="450.90894" fy="189.57936" r="21.166656" gradientTransform="matrix(0.0000000898067,-0.0537161,-0.0725168,-0.0000000698078,24.492201,43.747057)">
<stop offset="0" style="stop-color:rgb(0%,0%,0%);stop-opacity:0.313725;"/>
<stop offset="0.222222" style="stop-color:rgb(0%,0%,0%);stop-opacity:0.27451;"/>
<stop offset="1" style="stop-color:rgb(0%,0%,0%);stop-opacity:0;"/>
</radialGradient>
<radialGradient id="radial1" gradientUnits="userSpaceOnUse" cx="450.90894" cy="189.57936" fx="450.90894" fy="189.57936" r="21.166656" gradientTransform="matrix(-0.0000000898067,0.0537161,0.0725168,0.0000000698078,-2.661993,-5.149877)">
<stop offset="0" style="stop-color:rgb(0%,0%,0%);stop-opacity:0.313725;"/>
<stop offset="0.222222" style="stop-color:rgb(0%,0%,0%);stop-opacity:0.27451;"/>
<stop offset="1" style="stop-color:rgb(0%,0%,0%);stop-opacity:0;"/>
</radialGradient>
<radialGradient id="radial2" gradientUnits="userSpaceOnUse" cx="450.90894" cy="189.57936" fx="450.90894" fy="189.57936" r="21.166656" gradientTransform="matrix(-0.0000000898067,-0.0537161,0.0725168,-0.0000000698078,-2.661993,43.747057)">
<stop offset="0" style="stop-color:rgb(0%,0%,0%);stop-opacity:0.313725;"/>
<stop offset="0.222222" style="stop-color:rgb(0%,0%,0%);stop-opacity:0.27451;"/>
<stop offset="1" style="stop-color:rgb(0%,0%,0%);stop-opacity:0;"/>
</radialGradient>
<radialGradient id="radial3" gradientUnits="userSpaceOnUse" cx="450.90894" cy="189.57936" fx="450.90894" fy="189.57936" r="21.166656" gradientTransform="matrix(0.0000000898067,0.0537161,-0.0725168,0.0000000698078,24.4922,-5.149877)">
<stop offset="0" style="stop-color:rgb(0%,0%,0%);stop-opacity:0.313725;"/>
<stop offset="0.222222" style="stop-color:rgb(0%,0%,0%);stop-opacity:0.27451;"/>
<stop offset="1" style="stop-color:rgb(0%,0%,0%);stop-opacity:0;"/>
</radialGradient>
<linearGradient id="linear0" gradientUnits="userSpaceOnUse" x1="480" y1="1695.1182" x2="480" y2="175.11813" gradientTransform="matrix(0.0113699,0,0,0.0113699,0,0)">
<stop offset="0" style="stop-color:rgb(89.803922%,45.098039%,45.098039%);stop-opacity:1;"/>
<stop offset="1" style="stop-color:rgb(93.72549%,60.392157%,60.392157%);stop-opacity:1;"/>
</linearGradient>
<linearGradient id="linear1" gradientUnits="userSpaceOnUse" x1="800" y1="1695.1182" x2="800" y2="175.11813" gradientTransform="matrix(0.0113699,0,0,0.0113699,0,0)">
<stop offset="0" style="stop-color:rgb(93.72549%,32.54902%,31.372549%);stop-opacity:1;"/>
<stop offset="1" style="stop-color:rgb(89.803922%,45.098039%,45.098039%);stop-opacity:1;"/>
</linearGradient>
<linearGradient id="linear2" gradientUnits="userSpaceOnUse" x1="960" y1="1695.1182" x2="960" y2="175.11812" gradientTransform="matrix(0.0113699,0,0,0.0113699,0,0)">
<stop offset="0" style="stop-color:rgb(95.686275%,26.27451%,21.176471%);stop-opacity:1;"/>
<stop offset="1" style="stop-color:rgb(93.72549%,32.54902%,31.372549%);stop-opacity:1;"/>
</linearGradient>
<linearGradient id="linear3" gradientUnits="userSpaceOnUse" x1="1280" y1="1695.1182" x2="1280" y2="175.11813" gradientTransform="matrix(0.0113699,0,0,0.0113699,0,0)">
<stop offset="0" style="stop-color:rgb(93.72549%,32.54902%,31.372549%);stop-opacity:1;"/>
<stop offset="1" style="stop-color:rgb(89.803922%,45.098039%,45.098039%);stop-opacity:1;"/>
</linearGradient>
<linearGradient id="linear4" gradientUnits="userSpaceOnUse" x1="1520" y1="1695.1182" x2="1520" y2="175.11813" gradientTransform="matrix(0.0113699,0,0,0.0113699,0,0)">
<stop offset="0" style="stop-color:rgb(89.803922%,45.098039%,45.098039%);stop-opacity:1;"/>
<stop offset="1" style="stop-color:rgb(93.72549%,60.392157%,60.392157%);stop-opacity:1;"/>
</linearGradient>
<linearGradient id="linear5" gradientUnits="userSpaceOnUse" x1="400" y1="1695.1182" x2="400" y2="175.11813" gradientTransform="matrix(0.0113699,0,0,0.0113699,0,0)">
<stop offset="0" style="stop-color:rgb(95.686275%,26.27451%,21.176471%);stop-opacity:1;"/>
<stop offset="1" style="stop-color:rgb(93.72549%,32.54902%,31.372549%);stop-opacity:1;"/>
</linearGradient>
<linearGradient id="linear6" gradientUnits="userSpaceOnUse" x1="960" y1="1695.1182" x2="960" y2="175.11812" gradientTransform="matrix(0.0113699,0,0,0.0113699,0,0)">
<stop offset="0" style="stop-color:rgb(93.72549%,32.54902%,31.372549%);stop-opacity:1;"/>
<stop offset="1" style="stop-color:rgb(89.803922%,45.098039%,45.098039%);stop-opacity:1;"/>
</linearGradient>
<linearGradient id="linear7" gradientUnits="userSpaceOnUse" x1="1360" y1="1695.1182" x2="1360" y2="175.11813" gradientTransform="matrix(0.0113699,0,0,0.0113699,0,0)">
<stop offset="0" style="stop-color:rgb(95.686275%,26.27451%,21.176471%);stop-opacity:1;"/>
<stop offset="1" style="stop-color:rgb(93.72549%,32.54902%,31.372549%);stop-opacity:1;"/>
</linearGradient>
</defs>
<g id="surface1">
<path style=" stroke:none;fill-rule:nonzero;fill:url(#radial0);" d="M 10.914062 19.296875 L 12.28125 19.296875 L 12.28125 18.390625 L 10.914062 18.390625 Z M 10.914062 19.296875 "/>
<path style=" stroke:none;fill-rule:nonzero;fill:url(#radial1);" d="M 10.914062 19.296875 L 9.550781 19.296875 L 9.550781 20.207031 L 10.914062 20.207031 Z M 10.914062 19.296875 "/>
<path style=" stroke:none;fill-rule:nonzero;fill:url(#radial2);" d="M 10.914062 19.296875 L 9.550781 19.296875 L 9.550781 18.390625 L 10.914062 18.390625 Z M 10.914062 19.296875 "/>
<path style=" stroke:none;fill-rule:nonzero;fill:url(#radial3);" d="M 10.914062 19.296875 L 12.28125 19.296875 L 12.28125 20.207031 L 10.914062 20.207031 Z M 10.914062 19.296875 "/>
<path style=" stroke:none;fill-rule:nonzero;fill:url(#linear0);" d="M 4.96875 2.214844 C 4.867188 2.304688 4.785156 2.414062 4.726562 2.542969 L 2 8.910156 C 1.949219 9.027344 1.925781 9.148438 1.925781 9.269531 L 7.582031 9.269531 Z M 4.96875 2.214844 "/>
<path style=" stroke:none;fill-rule:nonzero;fill:url(#linear1);" d="M 10.90625 1.996094 L 5.558594 1.996094 C 5.339844 1.996094 5.128906 2.078125 4.96875 2.214844 L 7.582031 9.261719 Z M 10.90625 1.996094 "/>
<path style=" stroke:none;fill-rule:nonzero;fill:url(#linear2);" d="M 10.90625 1.996094 L 7.582031 9.261719 L 7.582031 9.269531 L 14.25 9.269531 L 10.921875 1.996094 Z M 10.90625 1.996094 "/>
<path style=" stroke:none;fill-rule:nonzero;fill:url(#linear3);" d="M 17.0625 2.214844 C 16.902344 2.074219 16.695312 1.996094 16.476562 1.996094 L 10.921875 1.996094 L 14.25 9.269531 L 14.277344 9.269531 Z M 17.0625 2.214844 "/>
<path style=" stroke:none;fill-rule:nonzero;fill:url(#linear4);" d="M 17.0625 2.214844 L 14.277344 9.269531 L 20.109375 9.269531 C 20.109375 9.148438 20.085938 9.027344 20.035156 8.910156 L 17.308594 2.542969 C 17.25 2.414062 17.167969 2.300781 17.0625 2.214844 Z M 17.0625 2.214844 "/>
<path style=" stroke:none;fill-rule:nonzero;fill:url(#linear5);" d="M 7.578125 9.269531 L 1.824219 9.269531 C 1.824219 9.488281 1.902344 9.703125 2.054688 9.875 L 10.242188 18.96875 C 10.421875 19.167969 10.667969 19.269531 10.914062 19.269531 Z M 7.578125 9.269531 "/>
<path style=" stroke:none;fill-rule:nonzero;fill:url(#linear6);" d="M 7.578125 9.269531 L 10.914062 19.269531 C 10.914062 19.269531 10.914062 19.269531 10.917969 19.269531 L 14.25 9.269531 Z M 7.578125 9.269531 "/>
<path style=" stroke:none;fill-rule:nonzero;fill:url(#linear7);" d="M 14.25 9.269531 L 10.917969 19.269531 C 11.164062 19.269531 11.410156 19.167969 11.589844 18.96875 L 19.773438 9.875 C 19.925781 9.703125 20.007812 9.488281 20.007812 9.269531 Z M 14.25 9.269531 "/>
<path style=" stroke:none;fill-rule:nonzero;fill:rgb(100%,100%,100%);fill-opacity:0.392157;" d="M 5.558594 1.996094 C 5.339844 1.996094 5.128906 2.078125 4.96875 2.214844 C 4.867188 2.304688 4.785156 2.414062 4.726562 2.542969 L 2 8.910156 C 1.949219 9.027344 1.925781 9.148438 1.925781 9.269531 L 1.824219 9.269531 C 1.824219 9.34375 1.832031 9.417969 1.851562 9.492188 L 1.925781 9.492188 C 1.925781 9.371094 1.949219 9.25 2 9.136719 L 4.726562 2.769531 C 4.785156 2.640625 4.867188 2.53125 4.96875 2.441406 C 5.128906 2.300781 5.339844 2.21875 5.558594 2.21875 L 16.476562 2.21875 C 16.695312 2.21875 16.902344 2.300781 17.0625 2.4375 C 17.167969 2.527344 17.25 2.640625 17.308594 2.769531 L 20.035156 9.136719 C 20.054688 9.179688 20.070312 9.222656 20.082031 9.269531 L 20.109375 9.269531 C 20.109375 9.148438 20.085938 9.027344 20.035156 8.910156 L 17.308594 2.542969 C 17.25 2.414062 17.167969 2.300781 17.0625 2.214844 C 16.902344 2.074219 16.695312 1.996094 16.476562 1.996094 Z M 5.558594 1.996094 "/>
<path style=" stroke:none;fill-rule:nonzero;fill:rgb(0%,0%,0%);fill-opacity:0.235294;" d="M 1.824219 9.269531 C 1.824219 9.488281 1.902344 9.703125 2.054688 9.875 L 10.242188 18.96875 C 10.421875 19.167969 10.667969 19.269531 10.914062 19.269531 C 10.914062 19.269531 10.914062 19.269531 10.917969 19.269531 C 11.164062 19.269531 11.410156 19.167969 11.589844 18.96875 L 19.773438 9.875 C 19.925781 9.703125 20.007812 9.488281 20.007812 9.269531 L 19.960938 9.269531 C 19.921875 9.382812 19.859375 9.492188 19.773438 9.585938 L 11.589844 18.679688 C 11.410156 18.882812 11.164062 18.980469 10.917969 18.980469 C 10.914062 18.980469 10.914062 18.980469 10.914062 18.980469 C 10.667969 18.980469 10.421875 18.882812 10.242188 18.679688 L 2.054688 9.585938 C 1.972656 9.492188 1.910156 9.382812 1.871094 9.269531 Z M 1.824219 9.269531 "/>
<path style=" stroke:none;fill-rule:nonzero;fill:rgb(12.941176%,12.941176%,12.941176%);fill-opacity:1;" d="M 5.558594 1.929688 C 5.324219 1.929688 5.101562 2.019531 4.929688 2.167969 C 4.925781 2.167969 4.925781 2.167969 4.925781 2.167969 C 4.816406 2.261719 4.726562 2.378906 4.667969 2.519531 L 1.941406 8.886719 C 1.894531 8.988281 1.871094 9.097656 1.863281 9.203125 L 1.824219 9.203125 C 1.789062 9.203125 1.757812 9.230469 1.757812 9.269531 C 1.757812 9.503906 1.84375 9.734375 2.007812 9.917969 L 10.195312 19.011719 C 10.386719 19.226562 10.648438 19.332031 10.914062 19.332031 C 10.910156 19.332031 10.910156 19.332031 10.917969 19.332031 C 11.179688 19.332031 11.445312 19.226562 11.636719 19.011719 L 19.820312 9.917969 C 19.96875 9.75 20.054688 9.546875 20.070312 9.332031 L 20.109375 9.332031 C 20.144531 9.332031 20.175781 9.304688 20.175781 9.269531 C 20.175781 9.140625 20.148438 9.007812 20.09375 8.886719 L 17.367188 2.519531 C 17.308594 2.378906 17.214844 2.257812 17.105469 2.164062 C 16.933594 2.015625 16.710938 1.929688 16.476562 1.929688 Z M 5.558594 2.058594 L 10.804688 2.058594 L 8.777344 6.492188 L 7.585938 9.089844 L 5.046875 2.238281 C 5.191406 2.125 5.371094 2.058594 5.558594 2.058594 Z M 11.023438 2.058594 L 16.476562 2.058594 C 16.664062 2.058594 16.839844 2.125 16.984375 2.234375 L 16.941406 2.347656 L 14.261719 9.136719 Z M 10.914062 2.132812 L 14.148438 9.203125 L 7.679688 9.203125 L 7.996094 8.507812 Z M 17.085938 2.324219 C 17.152344 2.394531 17.207031 2.476562 17.25 2.570312 L 19.976562 8.9375 C 20.015625 9.023438 20.035156 9.113281 20.042969 9.203125 L 14.371094 9.203125 Z M 4.941406 2.332031 L 7.492188 9.203125 L 1.992188 9.203125 C 2 9.113281 2.023438 9.023438 2.058594 8.9375 L 4.789062 2.570312 C 4.824219 2.480469 4.878906 2.398438 4.941406 2.332031 Z M 1.890625 9.332031 L 7.535156 9.332031 L 10.824219 19.199219 C 10.625 19.175781 10.433594 19.085938 10.289062 18.925781 L 2.105469 9.832031 C 1.976562 9.691406 1.90625 9.515625 1.890625 9.332031 Z M 7.667969 9.332031 L 14.160156 9.332031 L 10.914062 19.070312 Z M 14.296875 9.332031 L 19.9375 9.332031 C 19.925781 9.515625 19.851562 9.691406 19.726562 9.832031 L 11.539062 18.925781 C 11.394531 19.085938 11.203125 19.175781 11.007812 19.199219 Z M 14.296875 9.332031 "/>
</g>
</svg>
